Numix/22/status/teamviewer-indicator-busy.svg

<?xml version="1.0" encoding="UTF-8" standalone="no"?>
<svg
   xmlns:dc="http://purl.org/dc/elements/1.1/"
   xmlns:cc="http://creativecommons.org/ns#"
   xmlns:rdf="http://www.w3.org/1999/02/22-rdf-syntax-ns#"
   xmlns:svg="http://www.w3.org/2000/svg"
   xmlns="http://www.w3.org/2000/svg"
   xmlns:sodipodi="http://sodipodi.sourceforge.net/DTD/sodipodi-0.dtd"
   xmlns:inkscape="http://www.inkscape.org/namespaces/inkscape"
   width="22"
   viewBox="0 0 6.208889 6.208889"
   height="22"
   id="svg2"
   version="1.1"
   inkscape:version="0.91 r"
   sodipodi:docname="teamviewer-indicator-busy.svg">
  <metadata
     id="metadata12">
    <rdf:RDF>
      <cc:Work
         rdf:about="">
        <dc:format>image/svg+xml</dc:format>
        <dc:type
           rdf:resource="http://purl.org/dc/dcmitype/StillImage" />
        <dc:title />
      </cc:Work>
    </rdf:RDF>
  </metadata>
  <sodipodi:namedview
     pagecolor="#ffffff"
     bordercolor="#666666"
     borderopacity="1"
     objecttolerance="10"
     gridtolerance="10"
     guidetolerance="10"
     inkscape:pageopacity="0"
     inkscape:pageshadow="2"
     inkscape:window-width="1920"
     inkscape:window-height="1056"
     id="namedview10"
     showgrid="true"
     inkscape:zoom="22.627417"
     inkscape:cx="0.88738267"
     inkscape:cy="9.0411785"
     inkscape:window-x="0"
     inkscape:window-y="24"
     inkscape:window-maximized="1"
     inkscape:current-layer="svg2">
    <inkscape:grid
       type="xygrid"
       id="grid3815" />
  </sodipodi:namedview>
  <defs
     id="defs4" />
  <path
     style="fill:#ececec;fill-opacity:1;fill-rule:evenodd;stroke:none;stroke-width:0.28222221px;stroke-linecap:butt;stroke-linejoin:miter;stroke-opacity:1"
     d="m 1.4111111,3.1044445 0.8466667,-0.8466667 0,0.5644444 1.6933333,0 0,-0.5644444 0.8466666,0.8466666 -0.8466666,0.8466668 0,-0.5644445 -1.6933333,0 0,0.5644444 z"
     id="path4136"
     inkscape:connector-curvature="0"
     sodipodi:nodetypes="ccccccccccc" />
  <rect
     style="opacity:1;fill:#ececec;fill-opacity:1;fill-rule:nonzero;stroke:none;stroke-width:0.84666663;stroke-linecap:butt;stroke-linejoin:round;stroke-miterlimit:4;stroke-dasharray:none;stroke-dashoffset:0;stroke-opacity:1"
     id="rect4135"
     width="2.2577777"
     height="0.56444442"
     x="5.8415861"
     y="-0.28223583"
     transform="matrix(0.70710678,0.70710678,-0.70710678,0.70710678,0,0)" />
  <rect
     y="-7.252697"
     x="-1.1289023"
     height="0.56444442"
     width="2.2577777"
     id="rect4137"
     style="opacity:1;fill:#ececec;fill-opacity:1;fill-rule:nonzero;stroke:none;stroke-width:0.84666663;stroke-linecap:butt;stroke-linejoin:round;stroke-miterlimit:4;stroke-dasharray:none;stroke-dashoffset:0;stroke-opacity:1"
     transform="matrix(-0.70710678,0.70710678,-0.70710678,-0.70710678,0,0)" />
  <path
     style="color:#000000;font-style:normal;font-variant:normal;font-weight:normal;font-stretch:normal;font-size:medium;line-height:normal;font-family:sans-serif;text-indent:0;text-align:start;text-decoration:none;text-decoration-line:none;text-decoration-style:solid;text-decoration-color:#000000;letter-spacing:normal;word-spacing:normal;text-transform:none;direction:ltr;block-progression:tb;writing-mode:lr-tb;baseline-shift:baseline;text-anchor:start;white-space:normal;clip-rule:nonzero;display:inline;overflow:visible;visibility:visible;opacity:1;isolation:auto;mix-blend-mode:normal;color-interpolation:sRGB;color-interpolation-filters:linearRGB;solid-color:#000000;solid-opacity:1;fill:#ececec;fill-opacity:1;fill-rule:nonzero;stroke:none;stroke-width:0.56444442;stroke-linecap:butt;stroke-linejoin:miter;stroke-miterlimit:4;stroke-dasharray:none;stroke-dashoffset:0;stroke-opacity:1;color-rendering:auto;image-rendering:auto;shape-rendering:auto;text-rendering:auto;enable-background:accumulate"
     d="M 10.996094 2 C 6.0373753 2 2 6.0373756 2 10.996094 C 2 15.954812 6.0373753 20 10.996094 20 C 11.384979 20 11.768387 19.972306 12.144531 19.923828 L 11.808594 19.589844 L 13.933594 17.464844 L 13.855469 17.388672 C 12.982414 17.778339 12.016575 18 10.996094 18 C 7.1182554 18 4 14.873932 4 10.996094 C 4 7.1182561 7.1182554 4.0000004 10.996094 4 C 14.873932 4 18 7.1182561 18 10.996094 C 18 12.016575 17.778339 12.982414 17.388672 13.855469 L 17.464844 13.933594 L 19.589844 11.808594 L 19.923828 12.142578 C 19.972144 11.767046 20 11.384321 20 10.996094 C 20 6.0373756 15.954812 2 10.996094 2 z "
     transform="scale(0.28222222,0.28222222)"
     id="path4137" />
</svg>

<svg xmlns="http://www.w3.org/2000/svg" width="22" viewBox="0 0 6.208889 6.208889" height="22">
 <path d="m 1.411 3.104 0.847 -0.847 0 0.564 1.693 0 0 -0.564 0.847 0.847 -0.847 0.847 0 -0.564 -1.693 0 0 0.564 z" style="fill:#ececec;fill-opacity:1;stroke:none;fill-rule:evenodd"/>
 <rect width="2.258" height="0.564" x="5.842" y="-0.282" transform="matrix(0.70710678,0.70710678,-0.70710678,0.70710678,0,0)" style="fill:#ececec;opacity:1;fill-opacity:1;stroke:none;fill-rule:nonzero"/>
 <rect y="-7.253" x="-1.129" height="0.564" width="2.258" transform="matrix(-0.70710678,0.70710678,-0.70710678,-0.70710678,0,0)" style="fill:#ececec;opacity:1;fill-opacity:1;stroke:none;fill-rule:nonzero"/>
 <path d="m 10.996 2 c -4.959 0 -8.996 4.04 -8.996 8.996 c 0 4.959 4.04 9 8.996 9 c 0.389 0 0.772 -0.028 1.148 -0.076 l -0.336 -0.334 l 2.125 -2.125 l -0.078 -0.076 c -0.873 0.39 -1.839 0.611 -2.859 0.611 c -3.878 0 -6.996 -3.126 -6.996 -7 c 0 -3.878 3.118 -6.996 6.996 -6.996 c 3.878 0 7 3.118 7 6.996 c 0 1.02 -0.222 1.986 -0.611 2.859 l 0.076 0.078 l 2.125 -2.125 l 0.334 0.334 c 0.048 -0.376 0.076 -0.758 0.076 -1.146 c 0 -4.959 -4.045 -8.996 -9 -8.996 z" transform="scale(0.28222222,0.28222222)" mix-blend-mode="normal" isolation="auto" white-space="normal" solid-opacity="1" solid-color="#000000" style="visibility:visible;shape-rendering:auto;color-interpolation-filters:linearRGB;fill:#ececec;opacity:1;image-rendering:auto;fill-opacity:1;stroke:none;display:inline;color:#000;fill-rule:nonzero;color-rendering:auto;color-interpolation:sRGB"/>
</svg>
